_inc/images/systems/logos/steam.svg

<svg viewBox="0 0 230 60" xmlns="http://www.w3.org/2000/svg">
    <path d="M30.051 0C14.21 0 1.233 12.152 0 27.594l16.162 6.649a8.514 8.514 0 0 1 5.28-1.464l7.187-10.365v-.146c0-6.239 5.1-11.314 11.372-11.314 6.271 0 11.371 5.075 11.371 11.314s-5.1 11.315-11.371 11.315c-.087 0-.173-.003-.259-.005l-10.25 7.277c.005.132.01.267.01.402 0 4.683-3.829 8.492-8.536 8.492-4.131 0-7.586-2.934-8.369-6.819L1.039 38.176C4.618 50.768 16.246 60 30.051 60c16.654 0 30.154-13.432 30.154-29.999C60.205 13.431 46.705 0 30.051 0" style="fill:#ccc"/>
    <path d="m18.896 45.52-3.704-1.522a6.364 6.364 0 0 0 3.3 3.124c3.26 1.351 7.018-.188 8.376-3.434a6.288 6.288 0 0 0 .01-4.875 6.344 6.344 0 0 0-3.458-3.457 6.416 6.416 0 0 0-4.722-.072l3.827 1.575a4.682 4.682 0 0 1 2.538 6.135c-.999 2.393-3.762 3.524-6.167 2.526m28.682-23.252c0-4.157-3.399-7.539-7.578-7.539-4.178 0-7.577 3.382-7.577 7.539s3.399 7.538 7.577 7.538c4.179-.001 7.578-3.381 7.578-7.538m-13.257-.013c0-3.128 2.549-5.662 5.692-5.662 3.144 0 5.693 2.534 5.693 5.662s-2.549 5.662-5.693 5.662c-3.143 0-5.692-2.535-5.692-5.662" style="fill:#ccc"/>
    <path d="m93.63 16.434-2.795 4.887c-2.152-1.496-5.07-2.397-7.617-2.397-2.911 0-4.712 1.199-4.712 3.347 0 2.609 3.2 3.216 7.955 4.914 5.112 1.798 8.05 3.912 8.05 8.57 0 6.372-5.037 9.951-12.277 9.951-3.529 0-7.786-.906-11.058-2.886l2.039-5.419c2.658 1.397 5.838 2.225 8.673 2.225 3.821 0 5.637-1.402 5.637-3.475 0-2.373-2.77-3.086-7.24-4.559-5.095-1.692-8.626-3.913-8.626-9.068 0-5.814 4.68-9.152 11.414-9.152 4.693 0 8.465 1.479 10.557 3.062m21.849 3.089v25.648h-6.581V19.523h-9.552v-5.616h25.657v5.616zm23.397-.017v7.045h12.595v5.615h-12.595v7.337h14.613v5.668h-21.192V13.907h21.192v5.599zm29.301 19.595-2.08 6.071h-6.899l11.783-31.264h6.624l12.116 31.263h-7.132l-2.126-6.071h-12.286Zm6.079-17.736-4.292 12.518h8.672l-4.38-12.518Zm49.239 4.626-8.6 18.269h-3.713l-8.461-18.105v19.016h-6.302V13.907h6.288l10.561 22.568 10.187-22.568h6.342v31.264h-6.301z" style="fill:#fff"/>
</svg>

<?xml version="1.0" encoding="utf-8"?>
<svg version="1.1" id="Layer_1" x="0px" y="0px" enable-background="new 0 0 355.666 89.333" viewBox="0 0 230 60" xmlns="http://www.w3.org/2000/svg">
  <path d="M 30.051 0 C 14.21 0 1.233 12.152 0 27.594 L 16.162 34.243 C 17.532 33.311 19.186 32.764 20.966 32.764 C 21.126 32.764 21.284 32.77 21.442 32.779 L 28.629 22.414 C 28.629 22.365 28.629 22.316 28.629 22.268 C 28.629 16.029 33.729 10.954 40.001 10.954 C 46.272 10.954 51.372 16.029 51.372 22.268 C 51.372 28.507 46.272 33.583 40.001 33.583 C 39.914 33.583 39.828 33.58 39.742 33.578 L 29.492 40.855 C 29.497 40.987 29.502 41.122 29.502 41.257 C 29.502 45.94 25.673 49.749 20.966 49.749 C 16.835 49.749 13.38 46.815 12.597 42.93 L 1.039 38.176 C 4.618 50.768 16.246 60 30.051 60 C 46.705 60 60.205 46.568 60.205 30.001 C 60.205 13.431 46.705 0 30.051 0" style="fill: rgb(204, 204, 204);"/>
  <path d="M 18.896 45.52 L 15.192 43.998 C 15.849 45.358 16.984 46.496 18.492 47.122 C 21.752 48.473 25.51 46.934 26.868 43.688 C 27.526 42.119 27.531 40.386 26.878 38.813 C 26.227 37.238 24.999 36.011 23.42 35.356 C 21.852 34.707 20.173 34.731 18.698 35.284 L 22.525 36.859 C 24.929 37.856 26.065 40.602 25.063 42.994 C 24.064 45.387 21.301 46.518 18.896 45.52" style="fill: rgb(204, 204, 204);"/>
  <path d="M 47.578 22.268 C 47.578 18.111 44.179 14.729 40 14.729 C 35.822 14.729 32.423 18.111 32.423 22.268 C 32.423 26.425 35.822 29.806 40 29.806 C 44.179 29.805 47.578 26.425 47.578 22.268 M 34.321 22.255 C 34.321 19.127 36.87 16.593 40.013 16.593 C 43.157 16.593 45.706 19.127 45.706 22.255 C 45.706 25.383 43.157 27.917 40.013 27.917 C 36.87 27.917 34.321 25.382 34.321 22.255" style="fill: rgb(204, 204, 204);"/>
  <path d="M 93.63 16.434 L 90.835 21.321 C 88.683 19.825 85.765 18.924 83.218 18.924 C 80.307 18.924 78.506 20.123 78.506 22.271 C 78.506 24.88 81.706 25.487 86.461 27.185 C 91.573 28.983 94.511 31.097 94.511 35.755 C 94.511 42.127 89.474 45.706 82.234 45.706 C 78.705 45.706 74.448 44.8 71.176 42.82 L 73.215 37.401 C 75.873 38.798 79.053 39.626 81.888 39.626 C 85.709 39.626 87.525 38.224 87.525 36.151 C 87.525 33.778 84.755 33.065 80.285 31.592 C 75.19 29.9 71.659 27.679 71.659 22.524 C 71.659 16.71 76.339 13.372 83.073 13.372 C 87.766 13.372 91.538 14.851 93.63 16.434" style="fill: rgb(255, 255, 255);"/>
  <polygon points="115.479 19.523 115.479 45.171 108.898 45.171 108.898 19.523 99.346 19.523 99.346 13.907 125.003 13.907 125.003 19.523" style="fill: rgb(255, 255, 255);"/>
  <polygon points="138.876 19.506 138.876 26.551 151.471 26.551 151.471 32.166 138.876 32.166 138.876 39.503 153.489 39.503 153.489 45.171 132.297 45.171 132.297 13.907 153.489 13.907 153.489 19.506" style="fill: rgb(255, 255, 255);"/>
  <path d="M 168.177 39.101 L 166.097 45.172 L 159.198 45.172 L 170.981 13.908 L 177.605 13.908 L 189.721 45.171 L 182.589 45.171 L 180.463 39.1 L 168.177 39.1 Z M 174.256 21.365 L 169.964 33.883 L 178.636 33.883 L 174.256 21.365 Z" style="fill: rgb(255, 255, 255);"/>
  <polygon points="223.495 25.991 214.895 44.26 211.182 44.26 202.721 26.155 202.721 45.171 196.419 45.171 196.419 13.907 202.707 13.907 213.268 36.475 223.455 13.907 229.797 13.907 229.797 45.171 223.496 45.171" style="fill: rgb(255, 255, 255);"/>
</svg>
